32x32/apps/gramwallet.svg

<svg height="32" width="32" xmlns="http://www.w3.org/2000/svg"><circle cx="16" cy="17" opacity=".2" r="14"/><circle cx="16" cy="16" fill="#17191e" r="14"/><path d="m11.43 11c-.983 0-2.028.095-2.795.916-.384.41-.598 1.027-.563 1.631.036.604.26 1.2.637 1.854a1 1 0 0 0 .023.037l6.424 10.1a1 1 0 0 0 1.69-.005l6.574-10.445a1 1 0 0 0 .021-.033c.493-.853.82-1.867.29-2.803-.531-.935-1.631-1.252-2.971-1.252zm0 2h3.57v8.563l-4.563-7.17c-.272-.476-.36-.811-.369-.963-.009-.154 0-.118.028-.149.057-.06.594-.28 1.334-.28zm5.57 0h3.762c1.018 0 1.236.25 1.228.236-.007-.013.044.251-.28.815l-.001.004-4.709 7.48z" opacity=".2"/><path d="m16 24-6.425-10.1c-1.311-2.272.132-2.9 1.856-2.9h9.33c2.358 0 2.635 1.133 1.813 2.555z" fill="none" stroke="#f4f4f7" stroke-linecap="round" stroke-linejoin="round" stroke-width="2"/><g fill="#f4f4f7"><path d="m15 10.15h2v13.893h-2z"/><path d="m16 2a14 14 0 0 0 -14 14 14 14 0 0 0 .021.586 14 14 0 0 1 13.979-13.586 14 14 0 0 1 13.979 13.414 14 14 0 0 0 .021-.414 14 14 0 0 0 -14-14z" opacity=".1"/></g></svg>

<svg xmlns="http://www.w3.org/2000/svg" width="32" height="32"><circle style="opacity:.2" cx="16" cy="17" r="14"/><circle style="fill:#17191e" cx="16" cy="16" r="14"/><path style="opacity:.2" d="M11.43 11c-.983 0-2.028.095-2.795.916-.384.41-.598 1.027-.563 1.631.036.604.26 1.2.637 1.854a1 1 0 0 0 .023.037l6.424 10.1a1 1 0 0 0 1.69-.005l6.574-10.445a1 1 0 0 0 .021-.033c.493-.853.82-1.867.29-2.803C23.2 11.317 22.1 11 20.76 11zm0 2H15v8.563l-4.563-7.17c-.272-.476-.36-.811-.369-.963-.009-.154 0-.118.028-.149.057-.06.594-.28 1.334-.28zM17 13h3.762c1.018 0 1.236.25 1.228.236-.007-.013.044.251-.28.815l-.001.004L17 21.535z"/><path style="fill:none;stroke:#f4f4f7;stroke-width:2;stroke-linecap:round;stroke-linejoin:round" d="M16 24 9.575 13.9c-1.311-2.272.132-2.9 1.856-2.9h9.33c2.358 0 2.635 1.133 1.813 2.555z"/><path style="fill:#f4f4f7" d="M15 10.15h2v13.893h-2z"/><path style="fill:#f4f4f7;opacity:.1" d="M16 2A14 14 0 0 0 2 16a14 14 0 0 0 .021.586A14 14 0 0 1 16 3a14 14 0 0 1 13.979 13.414A14 14 0 0 0 30 16 14 14 0 0 0 16 2z"/></svg>
